teams/dark/116.svg

<svg xmlns="http://www.w3.org/2000/svg" viewBox="0 0 300 300"><title>Colorado Rockies cap on dark logo</title><path fill="#fff" d="M219.24 189.77v-93.4c.57-7.92 2.58-10.49 8.4-15.93-12.88-4.87-27.76-19.94-35.68-35.87-39.97 20.42-84.34 20.42-117.92-9.16-3.34-2.96-7.16-4.48-4.58 1.14 9.44 20.61 29.19 33.39 51.33 39.12-12.78 10.97-20.32 17.55-21.94 31.48-10.88.86-22.61 8.78-26.33 16.22-4.2 8.4 2 8.59 6.3 5.72 5.44-3.72 13.07-5.15 19.65-4.87v10.59c-10.88.76-21.66 8.78-25.38 16.22-4.2 8.4 2 8.59 6.3 5.72 5.44-3.72 12.5-5.72 19.08-5.44v31.86c0 12.5-6.3 18.79-9.92 22.23-3.72 3.43-1.62 6.96 3.72 4.87 11.26-4.48 22.99-15.17 25.66-31.48 4.29.57 9.44.67 13.07 0v4.39c0 12.5-6.3 18.79-10.02 22.23q-.1.1-.1.19c-11.93 1.05-22.71 5.06-31.2 11.73-19.65 15.07-22.61 43.6-19.65 49.9.19.38 10.97-35.2 42.93-39.02 18.51-2.19 41.21 3.43 60.58 20.23 11.93-19.94 32.25-31.29 55.81-35.3-7.92-9.16-9.92-13.07-10.11-23.37M193.58 84.92v27.95c-12.78 3.82-31.2 3.72-42.74-.48v-3.63c0-9.92.86-22.42 8.97-30.34 7.82-.86 15.36-2.48 22.32-4.96l11.45 11.45Zm-42.74 37.31c11.54 4.1 29.96 4.29 42.74.38v27.19c-12.78-3.82-31.2-3.72-42.74.38zm-.77-43.13c-6.01 5.25-11.16 10.11-14.6 15.74-4.58-1.53-8.78-2.39-12.78-2.67 2.67-5.25 6.39-10.21 10.97-14.02 5.44.76 10.97 1.05 16.41.95m-31.67 91.59v-61.82c0-2.77.48-5.63 1.24-8.49 4.48-.48 8.97 0 12.88 1.34-.95 2.96-1.43 6.01-1.43 9.54l-.1 59.15c-3.24.67-8.2.76-12.59.29Zm48.94 44.74c-12.4-6.11-24.52-9.25-35.97-9.92 10.21-6.87 19.46-18.99 19.46-35.01v-10.49c11.54-4.1 29.96-4.29 42.74-.38v40.45c-8.01 2.29-17.65 7.92-26.24 15.36Zm55.62 15.46h4.1v10.78h3.15v-10.78h4.1v-2.58h-11.35m23.66 0-3.05 7.82-2.96-7.82h-4.67v13.36h2.96v-10.78l3.91 10.78h1.72l4.01-10.78v10.78h2.86v-13.36"/></svg>

<svg width="300" height="300" viewBox="0 0 300 300" fill="none" xmlns="http://www.w3.org/2000/svg">
<path d="M219.24 189.77V96.37C219.81 88.45 221.82 85.88 227.64 80.44C214.76 75.57 199.88 60.5 191.96 44.57C151.99 64.99 107.62 64.99 74.04 35.41C70.7 32.45 66.88 30.93 69.46 36.55C78.9 57.16 98.65 69.94 120.79 75.67C108.01 86.64 100.47 93.22 98.85 107.15C87.97 108.01 76.24 115.93 72.52 123.37C68.32 131.77 74.52 131.96 78.82 129.09C84.26 125.37 91.89 123.94 98.47 124.22V134.81C87.59 135.57 76.81 143.59 73.09 151.03C68.89 159.43 75.09 159.62 79.39 156.75C84.83 153.03 91.89 151.03 98.47 151.31V183.17C98.47 195.67 92.17 201.96 88.55 205.4C84.83 208.83 86.93 212.36 92.27 210.27C103.53 205.79 115.26 195.1 117.93 178.79C122.22 179.36 127.37 179.46 131 178.79V183.18C131 195.68 124.7 201.97 120.98 205.41C120.913 205.477 120.88 205.54 120.88 205.6C108.95 206.65 98.17 210.66 89.68 217.33C70.03 232.4 67.07 260.93 70.03 267.23C70.22 267.61 81 232.03 112.96 228.21C131.47 226.02 154.17 231.64 173.54 248.44C185.47 228.5 205.79 217.15 229.35 213.14C221.43 203.98 219.43 200.07 219.24 189.77ZM193.58 84.92V112.87C180.8 116.69 162.38 116.59 150.84 112.39V108.76C150.84 98.84 151.7 86.34 159.81 78.42C167.63 77.56 175.17 75.94 182.13 73.46L193.58 84.91V84.92ZM150.84 122.23C162.38 126.33 180.8 126.52 193.58 122.61V149.8C180.8 145.98 162.38 146.08 150.84 150.18V122.23ZM150.07 79.1C144.06 84.35 138.91 89.21 135.47 94.84C130.89 93.31 126.69 92.45 122.69 92.17C125.36 86.92 129.08 81.96 133.66 78.15C139.1 78.91 144.63 79.2 150.07 79.1ZM118.4 170.69V108.87C118.4 106.1 118.88 103.24 119.64 100.38C124.12 99.9 128.61 100.38 132.52 101.72C131.57 104.68 131.09 107.73 131.09 111.26L130.99 170.41C127.75 171.08 122.79 171.17 118.4 170.7V170.69ZM167.34 215.43C154.94 209.32 142.82 206.18 131.37 205.51C141.58 198.64 150.83 186.52 150.83 170.5V160.01C162.37 155.91 180.79 155.72 193.57 159.63V200.08C185.56 202.37 175.92 208 167.33 215.44L167.34 215.43Z" fill="white"/>
</svg>
